X: 19967
T: Jim Coleman's
R: reel
M: 4/4
K: Adorian
BAeA BAeA|BEE2 GBdB|BAeA Bdea|gedB BAAc|
BAeA Bged|BEEE G3B|AGEF GBef|1 gedB BAAc:|2 gedB BAAd||
eaa2 b2ab|gedB GABd|eaae gabg|gedB BAAe|
a3e a2ea|gedB GABd|eAA2 egag|1 gedB BAAd:|2 gedB BAAc||

